X: 1
T: Herring Gimlet, The
M: 6/8
L: 1/8
R: jig
K: Ador
|:AEG ABd|edg edB|dBG ABA|GED DEG|
A2G ABA|GAB deg|agf gdB|A3 A3:|
|:ede A3|BAB G2F|EFD EFA|B3 GBd|
ede ABd|efg a2b|gfe dBe|A3 A3:|
|:aeA B/2c/2de|ged ^cde|gfa g2e|dgd deg|
aeA B/2^c/2de|ged ^cde|gfa gfe|dB ^G A3:|
